X: 13969
T: Francie Brearton's
R: jig
M: 6/8
K: Dmajor
|:FDF A2d|B3 AFD|FDF AFD|EFE EAG|
FDF A2d|BdB AFD|DFB AFD|1 EDC DAG:|2 EDC DFA||
d3 cBA|dcB AFD|dcB edc|dcB A2d|
fed edc|dcB AFD|DFB AFD|1 EDC D2A:|2 EDC DAG||

